dist/img/percent_2.svg

<svg width="17" height="19" viewBox="0 0 17 19" fill="none" xmlns="http://www.w3.org/2000/svg">
<path d="M7.35 7.225C6.55 8.00833 5.55 8.4 4.35 8.4C3.15 8.4 2.14167 8 1.325 7.2C0.525 6.4 0.125 5.425 0.125 4.275C0.125 3.125 0.525 2.15 1.325 1.35C2.14167 0.549999 3.15 0.149999 4.35 0.149999C5.55 0.149999 6.55 0.549999 7.35 1.35C8.15 2.13333 8.55 3.10833 8.55 4.275C8.55 5.44167 8.15 6.425 7.35 7.225ZM1.9 15.35L13.3 2.675L14.825 3.525L3.4 16.225L1.9 15.35ZM3.2 5.425C3.5 5.725 3.875 5.875 4.325 5.875C4.775 5.875 5.15 5.725 5.45 5.425C5.75 5.10833 5.9 4.725 5.9 4.275C5.9 3.825 5.75 3.45 5.45 3.15C5.15 2.85 4.775 2.7 4.325 2.7C3.875 2.7 3.5 2.85 3.2 3.15C2.91667 3.45 2.775 3.825 2.775 4.275C2.775 4.725 2.91667 5.10833 3.2 5.425ZM15.8 17.1C15 17.9 14 18.3 12.8 18.3C11.6 18.3 10.6 17.9 9.8 17.1C9 16.3 8.6 15.325 8.6 14.175C8.6 13.025 9 12.05 9.8 11.25C10.6 10.45 11.6 10.05 12.8 10.05C14 10.05 15 10.45 15.8 11.25C16.6 12.05 17 13.025 17 14.175C17 15.325 16.6 16.3 15.8 17.1ZM11.675 15.325C11.975 15.625 12.35 15.775 12.8 15.775C13.25 15.775 13.6167 15.6167 13.9 15.3C14.2 14.9833 14.35 14.6083 14.35 14.175C14.35 13.725 14.2 13.35 13.9 13.05C13.6167 12.7333 13.25 12.575 12.8 12.575C12.35 12.575 11.975 12.7333 11.675 13.05C11.3917 13.35 11.25 13.725 11.25 14.175C11.25 14.625 11.3917 15.0083 11.675 15.325Z" fill="black"/>
</svg>

<svg width="17" height="19" fill="none" xmlns="http://www.w3.org/2000/svg"><path d="M7.35 7.225c-.8.783-1.8 1.175-3 1.175S2.142 8 1.325 7.2c-.8-.8-1.2-1.775-1.2-2.925s.4-2.125 1.2-2.925C2.142.55 3.15.15 4.35.15s2.2.4 3 1.2c.8.783 1.2 1.758 1.2 2.925 0 1.167-.4 2.15-1.2 2.95zM1.9 15.35L13.3 2.675l1.525.85L3.4 16.225l-1.5-.875zm1.3-9.925c.3.3.675.45 1.125.45.45 0 .825-.15 1.125-.45.3-.317.45-.7.45-1.15 0-.45-.15-.825-.45-1.125-.3-.3-.675-.45-1.125-.45-.45 0-.825.15-1.125.45-.283.3-.425.675-.425 1.125 0 .45.142.833.425 1.15zM15.8 17.1c-.8.8-1.8 1.2-3 1.2s-2.2-.4-3-1.2c-.8-.8-1.2-1.775-1.2-2.925S9 12.05 9.8 11.25c.8-.8 1.8-1.2 3-1.2s2.2.4 3 1.2c.8.8 1.2 1.775 1.2 2.925s-.4 2.125-1.2 2.925zm-4.125-1.775c.3.3.675.45 1.125.45.45 0 .817-.158 1.1-.475.3-.317.45-.692.45-1.125 0-.45-.15-.825-.45-1.125-.283-.317-.65-.475-1.1-.475-.45 0-.825.158-1.125.475-.283.3-.425.675-.425 1.125 0 .45.142.833.425 1.15z" fill="#000"/></svg>
